X: 37
T:LE RETOUR DE VOGUE
M:2/4
L:1/16
Q:180
C:M.P.
R:branle/rigodon
K:C
"A"e2|e3f e2d2|c4G4|cBcd e2c2|dcde f2e2|e3f e2d2|c4G4|cBcd edef|e2d2 c4|
"B"g2f2 e2d2 |c4G4|cBcd edef|g2a2 g4|g2f2 e2d2 |c4G4|cBcd edef|e2d2 c4
